img/main/symbols/gear.svg

<svg width="100" height="100" viewBox="0 0 100 100" fill="none" xmlns="http://www.w3.org/2000/svg">
<path d="M97.52 40.6984L88.596 39.6264C87.684 36.2225 86.348 33.0067 84.628 30.0228L90.176 22.9711C91.024 21.8871 90.928 20.2112 89.948 19.2352L80.752 10.0356C79.784 9.06364 78.104 8.95964 77.016 9.80761L69.952 15.3634C66.98 13.6435 63.764 12.3075 60.368 11.4035L59.3 2.4799C59.136 1.11596 57.876 0 56.5 0H43.492C42.116 0 40.856 1.11596 40.696 2.4799L39.624 11.4035C36.224 12.3115 33.004 13.6515 30.032 15.3674L22.972 9.81961C21.892 8.97164 20.212 9.07164 19.24 10.0436L10.04 19.2472C9.072 20.2152 8.972 21.8951 9.824 22.9831L15.368 30.0388C13.648 33.0147 12.312 36.2346 11.404 39.6384L2.484 40.7064C1.12 40.8664 0 42.1263 0 43.5063V56.5137C0 57.8897 1.116 59.1416 2.484 59.3096L11.408 60.3816C12.32 63.7734 13.652 66.9893 15.372 69.9652L9.828 77.0289C8.984 78.1129 9.08 79.7888 10.056 80.7648L19.24 89.9684C20.212 90.9364 21.892 91.0444 22.972 90.1964L30.036 84.6366C33.012 86.3565 36.228 87.6965 39.628 88.6005L40.7 97.5201C40.864 98.888 42.12 100 43.496 100H56.504C57.884 100 59.14 98.888 59.3 97.5201L60.372 88.6005C63.776 87.6885 66.992 86.3525 69.964 84.6366L77.028 90.1844C78.112 91.0324 79.788 90.9324 80.76 89.9604L89.956 80.7568C90.932 79.7888 91.032 78.1089 90.18 77.0169L84.628 69.9612C86.352 66.9853 87.684 63.7694 88.596 60.3736L97.516 59.3016C98.884 59.1376 100 57.8897 100 56.5057V43.4983C100.004 42.1143 98.892 40.8624 97.52 40.6984ZM50.004 74.997C36.196 74.997 25.004 63.8054 25.004 49.998C25.004 36.1906 36.196 24.999 50.004 24.999C63.812 24.999 75.004 36.1906 75.004 49.998C75.004 63.8054 63.816 74.997 50.004 74.997Z" fill="#EA8C3C"/>
</svg>

<svg width="100" height="100" fill="none" xmlns="http://www.w3.org/2000/svg"><path d="M97.52 40.698l-8.924-1.072a39.844 39.844 0 00-3.968-9.603l5.548-7.052c.848-1.084.752-2.76-.228-3.736l-9.196-9.2c-.968-.971-2.648-1.075-3.736-.227l-7.064 5.555a39.303 39.303 0 00-9.584-3.96L59.3 2.48C59.136 1.116 57.876 0 56.5 0H43.492c-1.376 0-2.636 1.116-2.796 2.48l-1.072 8.923c-3.4.909-6.62 2.248-9.592 3.964l-7.06-5.547c-1.08-.848-2.76-.748-3.732.224l-9.2 9.203c-.968.968-1.068 2.648-.216 3.736l5.544 7.056a39.515 39.515 0 00-3.964 9.6l-8.92 1.067C1.12 40.866 0 42.126 0 43.506v13.008c0 1.376 1.116 2.628 2.484 2.796l8.924 1.072a39.758 39.758 0 003.964 9.583L9.828 77.03c-.844 1.084-.748 2.76.228 3.736l9.184 9.203c.972.968 2.652 1.076 3.732.228l7.064-5.56a39.37 39.37 0 009.592 3.965l1.072 8.92c.164 1.367 1.42 2.479 2.796 2.479h13.008c1.38 0 2.636-1.112 2.796-2.48l1.072-8.92a39.715 39.715 0 009.592-3.963l7.064 5.547c1.084.848 2.76.748 3.732-.224l9.196-9.203c.976-.968 1.076-2.648.224-3.74l-5.552-7.056a39.571 39.571 0 003.968-9.587l8.92-1.072c1.368-.164 2.484-1.412 2.484-2.796V43.498c.004-1.384-1.108-2.636-2.48-2.8zM50.004 74.997c-13.808 0-25-11.192-25-24.999 0-13.807 11.192-24.999 25-24.999s25 11.192 25 24.999c0 13.807-11.188 24.999-25 24.999z" fill="#EA8C3C"/></svg>
